images/form/transfer-1.svg

<svg width="126" height="31" viewBox="0 0 126 31" fill="none" xmlns="http://www.w3.org/2000/svg">
<path d="M16.7665 22.7021C16.5289 22.6687 16.3931 22.5351 16.2913 22.3682L16.1895 22.2012C14.9337 19.5302 14.3907 16.5252 14.3567 13.3533C13.9155 14.4217 13.4743 15.4567 12.9652 16.4918C12.3882 17.6604 11.7433 18.7956 10.8269 19.864C10.4197 20.3649 9.63903 20.4316 9.02811 20.2981C8.519 20.0644 8.1796 19.4968 7.94202 19.0293C6.65229 16.592 6.04137 13.8541 5.3965 11.183C5.3965 11.1496 5.36256 11.1162 5.32862 11.1496C3.22432 14.188 2.00248 17.5936 1.15397 21.1996C1.01821 21.5335 1.32367 21.834 1.35761 22.1678C1.42549 22.3682 1.28973 22.5685 1.01821 22.6687C0.644865 22.7021 0.339403 22.4016 0.169701 22.1345C-0.0678805 21.5669 -0.0339403 20.9325 0.135761 20.3649C1.25579 16.7589 2.40976 13.1863 4.78558 10.0478C5.09104 9.84746 5.3965 9.84746 5.66802 9.91424C6.00743 9.91424 6.31289 10.2481 6.34683 10.4818C7.09351 13.3533 7.70444 16.2915 9.16387 18.8958C9.36751 19.1629 9.63903 19.3298 9.9445 19.2297C10.7251 18.4951 11.2342 17.5936 11.7433 16.6921C12.7615 14.8557 13.4743 12.9192 14.2549 10.9159L14.4246 10.6822C14.5264 10.582 14.5943 10.5152 14.764 10.5152C15.1034 10.4151 15.341 10.6488 15.4768 10.8825C15.4089 12.9526 15.4428 14.8891 15.6804 16.7923C15.918 18.6954 16.3592 20.5652 17.072 22.3682C17.1059 22.6019 16.8683 22.7021 16.7665 22.7021Z" fill="#262626"/>
<path d="M29.0202 15.1562C28.7827 17.5268 28.9184 20.2981 29.0881 22.6353C29.1221 22.869 28.7827 22.9024 28.613 22.8022C28.1378 22.435 27.9002 21.4667 27.8663 20.8657C27.7645 18.9959 27.7645 17.2597 27.8663 15.39C25.3547 15.4901 22.6395 15.4234 20.1618 15.6905C20.06 17.9275 20.1279 20.0644 20.2297 22.2012C20.2637 22.268 20.1279 22.3682 19.9582 22.4016C19.8564 22.4016 19.6867 22.3682 19.5849 22.268C19.1436 21.834 19.0418 21.0326 19.0079 20.4984C18.8382 17.1262 19.0758 13.7539 19.4152 10.4485C19.483 10.2481 19.7885 10.0478 20.06 10.2147C20.4334 10.3817 20.4334 10.8157 20.5012 11.1496C20.4334 12.0177 20.3315 13.4868 20.2297 14.5219C22.7074 14.3549 25.4565 14.4551 27.9342 14.4217C28.0699 12.7857 28.1378 11.1496 28.5451 9.61374C28.7148 9.41341 29.0542 9.54696 29.2578 9.74729C29.4275 9.94762 29.5293 10.3483 29.5293 10.582C29.3596 11.8508 29.1221 13.0862 29.0881 14.3883C29.1899 14.3883 29.2918 14.3549 29.3936 14.3549C29.4615 14.3549 29.5633 14.4217 29.5633 14.5886C29.5633 14.6554 29.5633 14.789 29.4954 14.8557C29.3936 14.9893 29.1899 15.0895 29.0202 15.1562Z" fill="#262626"/>
<path d="M36.6189 22.7021C34.9219 22.6353 33.3606 21.8674 32.3764 20.4316C31.5618 19.2297 31.3581 17.8273 31.5278 16.4584C31.7315 14.9225 32.3764 13.4534 33.2588 12.3182C34.2431 11.0494 35.6346 10.0478 37.2298 9.74729C38.3159 9.54696 39.4699 9.64713 40.2844 10.5152C40.6578 10.9159 40.9972 11.3499 40.9972 11.8842C41.0311 12.4518 40.7596 12.9526 40.2844 13.3199C37.9086 15.2564 35.397 17.0594 32.8176 18.5285C32.8855 19.5635 33.8018 20.632 34.7861 21.1662C35.7704 21.7004 36.9243 21.7672 38.0104 21.6336C39.0965 21.5335 40.2166 21.1662 40.9972 20.7989C41.1329 20.6988 41.2348 20.7989 41.2687 20.8991C41.3026 20.9659 41.3705 21.0994 41.2348 21.1996C40.0469 22.268 38.3498 22.7688 36.6189 22.7021ZM38.1123 10.7823C37.128 10.7823 36.1437 11.183 35.3631 11.784C33.7 13.1195 32.7158 15.2564 32.7158 17.3265C35.1255 16.0243 37.3995 14.3215 39.6056 12.5519C39.7753 12.4184 39.9111 11.9176 39.6735 11.5169C39.402 10.9827 38.7911 10.7823 38.1123 10.7823Z" fill="#262626"/>
<path d="M62.5628 15.1562C62.3252 17.5268 62.4609 20.2981 62.6306 22.6353C62.6646 22.869 62.3252 22.9024 62.1555 22.8022C61.6803 22.435 61.4427 21.4667 61.4088 20.8657C61.307 18.9959 61.307 17.2597 61.4088 15.39C58.8972 15.4901 56.182 15.4234 53.7044 15.6905C53.6025 17.9275 53.6704 20.0644 53.7722 22.2012C53.8062 22.268 53.6704 22.3682 53.5007 22.4016C53.3989 22.4016 53.2292 22.3682 53.1274 22.268C52.6861 21.834 52.5843 21.0326 52.5504 20.4984C52.3807 17.1262 52.6183 13.7539 52.9577 10.4485C53.0256 10.2481 53.331 10.0478 53.6025 10.2147C53.9759 10.3817 53.9759 10.8157 54.0438 11.1496C53.9759 12.0177 53.8741 13.4868 53.7722 14.5219C56.2499 14.3549 58.999 14.4551 61.4767 14.4217C61.6124 12.7857 61.6803 11.1496 62.0876 9.61374C62.2573 9.41341 62.5967 9.54696 62.8003 9.74729C62.97 9.94762 63.0719 10.3483 63.0719 10.582C62.9022 11.8508 62.6646 13.0862 62.6306 14.3883C62.7325 14.3883 62.8343 14.3549 62.9361 14.3549C63.004 14.3549 63.1058 14.4217 63.1058 14.5886C63.1058 14.6554 63.1058 14.789 63.0379 14.8557C62.9361 14.9893 62.7325 15.0895 62.5628 15.1562Z" fill="#262626"/>
<path d="M72.8766 19.9308C71.2814 23.3365 70.0256 26.8423 68.8038 30.3814C68.702 30.5818 68.2268 30.6486 68.125 30.3814C67.9553 30.0809 68.0571 29.2796 68.125 28.9791C68.668 26.7087 69.6523 24.6052 70.4669 22.435C69.4826 20.9992 68.2268 19.0293 67.2765 17.3265C66.0886 15.1562 65.1043 12.8858 64.731 10.3817C64.6631 10.0478 64.8667 9.71391 65.1382 9.58035C65.3419 9.51357 65.4776 9.61374 65.5795 9.7139C65.6813 9.81407 65.7492 9.94762 65.817 10.0812C66.1565 12.0845 66.8353 13.9543 67.6838 15.7239C68.6341 17.627 69.7541 19.43 71.0099 21.233C71.7905 19.5635 72.6051 17.8941 73.4875 16.2581C74.37 14.5886 75.3543 12.986 76.5422 11.4167C76.7798 11.1162 77.1192 10.7823 77.4246 10.9493C77.6283 11.0494 77.798 11.3499 77.6283 11.5837C75.8294 14.2881 74.2342 17.0594 72.8766 19.9308Z" fill="#262626"/>
<path d="M86.6956 15.7906C86.6956 15.8908 86.6956 16.0577 86.6617 16.1913C87.8835 16.9592 89.0035 17.9275 90.0896 18.9959C91.1757 20.031 92.2618 21.1662 93.3479 22.2012C93.5176 22.3348 93.2461 22.5685 93.1443 22.5685C92.6012 22.3682 92.1939 22.0677 91.7188 21.7338C91.3454 21.4333 90.9381 21.066 90.4969 20.7655C89.2751 19.6303 87.9853 18.5285 86.6956 17.5268C86.6277 19.263 86.8314 20.8991 87.035 22.6019C86.9671 22.869 86.6617 22.9024 86.458 22.8022C86.2204 22.435 86.1186 22.0343 86.0168 21.6336C85.9489 21.233 85.881 20.7989 85.8132 20.3983C85.6095 19.1629 85.6095 18.0277 85.6095 16.6921L85.4738 16.592C83.8107 17.7272 82.0119 19.1295 80.4167 20.3649C80.3488 20.3649 80.247 20.3983 80.1451 20.4316C80.0433 20.4316 79.9076 20.4316 79.8397 20.3315C79.7039 20.2313 79.7379 20.0978 79.7718 19.9976C79.8057 19.8974 79.8736 19.7973 79.9415 19.6971C81.4349 18.3615 82.9961 17.1262 84.5574 16.0243C82.9282 14.8891 81.1973 13.8875 79.4663 12.9526C79.1269 12.7189 78.6857 12.3516 78.7875 11.8174C78.9233 11.5503 79.3306 11.6171 79.5003 11.7172C81.6046 12.819 83.641 13.9543 85.5416 15.3566L85.6435 15.2898C85.6774 13.5202 85.7792 11.4835 86.3562 9.7139C86.6277 9.31324 87.1029 9.68052 87.1708 9.98101C87.2387 11.5169 86.8314 12.9526 86.7974 14.4885C89.0035 13.1529 91.2775 11.7172 93.6194 10.4485C93.857 10.3817 94.0267 10.3817 94.2643 10.4818C94.434 10.582 94.6037 10.9159 94.434 11.183C91.8885 12.7189 89.2411 14.1546 86.6956 15.7906Z" fill="#262626"/>
<path d="M101.052 22.7021C99.3553 22.6353 97.7941 21.8674 96.8098 20.4316C95.9952 19.2297 95.7916 17.8273 95.9613 16.4584C96.1649 14.9225 96.8098 13.4534 97.6923 12.3182C98.6765 11.0494 100.068 10.0478 101.663 9.74729C102.749 9.54696 103.903 9.64713 104.718 10.5152C105.091 10.9159 105.431 11.3499 105.431 11.8842C105.465 12.4518 105.193 12.9526 104.718 13.3199C102.342 15.2564 99.8305 17.0594 97.251 18.5285C97.3189 19.5635 98.2353 20.632 99.2196 21.1662C100.204 21.7004 101.358 21.7672 102.444 21.6336C103.53 21.5335 104.65 21.1662 105.431 20.7989C105.566 20.6988 105.668 20.7989 105.702 20.8991C105.736 20.9659 105.804 21.0994 105.668 21.1996C104.48 22.268 102.783 22.7688 101.052 22.7021ZM102.546 10.7823C101.561 10.7823 100.577 11.183 99.7965 11.784C98.1335 13.1195 97.1492 15.2564 97.1492 17.3265C99.559 16.0243 101.833 14.3215 104.039 12.5519C104.209 12.4184 104.345 11.9176 104.107 11.5169C103.835 10.9827 103.225 10.7823 102.546 10.7823Z" fill="#262626"/>
<path d="M117.55 15.1562C117.312 17.5268 117.448 20.2981 117.618 22.6353C117.652 22.869 117.312 22.9024 117.143 22.8022C116.668 22.435 116.43 21.4667 116.396 20.8657C116.294 18.9959 116.294 17.2597 116.396 15.39C113.884 15.4901 111.169 15.4234 108.692 15.6905C108.59 17.9275 108.658 20.0644 108.759 22.2012C108.793 22.268 108.658 22.3682 108.488 22.4016C108.386 22.4016 108.216 22.3682 108.115 22.268C107.673 21.834 107.572 21.0326 107.538 20.4984C107.368 17.1262 107.605 13.7539 107.945 10.4485C108.013 10.2481 108.318 10.0478 108.59 10.2147C108.963 10.3817 108.963 10.8157 109.031 11.1496C108.963 12.0177 108.861 13.4868 108.759 14.5219C111.237 14.3549 113.986 14.4551 116.464 14.4217C116.6 12.7857 116.668 11.1496 117.075 9.61374C117.244 9.41341 117.584 9.54696 117.788 9.74729C117.957 9.94762 118.059 10.3483 118.059 10.582C117.889 11.8508 117.652 13.0862 117.618 14.3883C117.72 14.3883 117.821 14.3549 117.923 14.3549C117.991 14.3549 118.093 14.4217 118.093 14.5886C118.093 14.6554 118.093 14.789 118.025 14.8557C117.923 14.9893 117.72 15.0895 117.55 15.1562Z" fill="#262626"/>
<path d="M124.606 2.00114L124.368 3.03619C123.995 4.60545 123.961 6.24149 123.961 7.87753C123.927 10.2815 124.096 12.7189 124.334 15.0227C124.266 15.3566 124.232 15.7239 123.825 15.7906C123.418 15.3232 123.316 14.789 123.248 14.2881C122.976 11.8508 122.807 9.34663 122.875 6.87587C122.942 4.93934 123.18 3.0028 123.655 1.13304C123.723 0.999483 123.825 0.632207 124.164 0.565431C124.368 0.532043 124.707 0.598819 124.809 0.899316C124.775 1.26659 124.707 1.63387 124.606 2.00114ZM125.59 23.1027C124.402 22.7355 123.553 21.5001 123.248 20.4316C123.214 20.0644 123.316 19.7973 123.621 19.6303C123.961 19.5635 124.198 19.864 124.266 20.0644C124.368 20.4316 124.538 20.7321 124.741 21.066C125.149 21.6336 125.59 22.1345 125.997 22.7021C126.031 22.9358 125.76 23.1361 125.59 23.1027Z" fill="#262626"/>
</svg>

<svg width="126" height="31" fill="none" xmlns="http://www.w3.org/2000/svg"><path d="M16.767 22.702c-.238-.033-.374-.167-.476-.334l-.102-.167c-1.255-2.67-1.798-5.676-1.832-8.848a52.004 52.004 0 0 1-1.392 3.139c-.577 1.168-1.222 2.304-2.138 3.372-.407.5-1.188.568-1.799.434-.509-.234-.848-.801-1.086-1.269-1.29-2.437-1.9-5.175-2.546-7.846 0-.033-.033-.067-.067-.033-2.105 3.038-3.327 6.444-4.175 10.05-.136.334.17.634.204.968.067.2-.068.4-.34.5-.373.034-.679-.266-.848-.534-.238-.567-.204-1.201-.034-1.77 1.12-3.605 2.274-7.178 4.65-10.316.305-.2.61-.2.882-.134.34 0 .645.334.679.568.747 2.871 1.357 5.81 2.817 8.414.204.267.475.434.78.334.781-.735 1.29-1.636 1.8-2.538 1.018-1.836 1.73-3.773 2.51-5.776l.17-.234c.102-.1.17-.167.34-.167.34-.1.577.134.713.367-.068 2.07-.034 4.007.203 5.91.238 1.903.68 3.773 1.392 5.576.034.234-.204.334-.305.334zM29.02 15.156c-.237 2.37-.102 5.142.068 7.48.034.233-.305.266-.475.166-.475-.367-.713-1.335-.747-1.936a49.127 49.127 0 0 1 0-5.476c-2.511.1-5.226.033-7.704.3-.102 2.237-.034 4.374.068 6.511.034.067-.102.167-.272.2-.102 0-.271-.033-.373-.133-.441-.434-.543-1.235-.577-1.77-.17-3.372.068-6.744.407-10.05.068-.2.373-.4.645-.233.373.167.373.6.441.935-.068.868-.17 2.337-.271 3.372 2.477-.167 5.226-.067 7.704-.1.136-1.636.204-3.272.611-4.808.17-.2.51-.067.713.133.17.2.271.601.271.835-.17 1.269-.407 2.504-.44 3.806.1 0 .203-.033.305-.033.068 0 .17.067.17.234 0 .066 0 .2-.069.267-.101.133-.305.233-.475.3zM36.619 22.702c-1.697-.067-3.258-.835-4.243-2.27-.814-1.202-1.018-2.605-.848-3.974a8.741 8.741 0 0 1 1.73-4.14c.985-1.269 2.377-2.27 3.972-2.57 1.086-.201 2.24-.1 3.054.767.374.4.713.835.713 1.37.034.567-.237 1.068-.713 1.435-2.375 1.936-4.887 3.74-7.466 5.209.068 1.035.984 2.103 1.968 2.637.984.534 2.138.601 3.224.468 1.087-.1 2.207-.468 2.987-.835.136-.1.238 0 .272.1.034.067.102.2-.034.3-1.188 1.069-2.885 1.57-4.616 1.503zm1.493-11.92c-.984 0-1.968.401-2.749 1.002-1.663 1.335-2.647 3.472-2.647 5.542 2.41-1.302 4.684-3.005 6.89-4.774.17-.134.305-.634.067-1.035-.271-.534-.882-.735-1.56-.735zM62.563 15.156c-.238 2.37-.102 5.142.068 7.48.034.233-.306.266-.475.166-.476-.367-.713-1.335-.747-1.936a49.127 49.127 0 0 1 0-5.476c-2.512.1-5.227.033-7.705.3-.102 2.237-.034 4.374.068 6.511.034.067-.102.167-.271.2-.102 0-.272-.033-.374-.133-.44-.434-.543-1.235-.577-1.77-.17-3.372.068-6.744.408-10.05.068-.2.373-.4.645-.233.373.167.373.6.44.935-.067.868-.169 2.337-.27 3.372 2.477-.167 5.226-.067 7.704-.1.135-1.636.203-3.272.61-4.808.17-.2.51-.067.713.133.17.2.272.601.272.835-.17 1.269-.407 2.504-.441 3.806.102 0 .203-.033.305-.033.068 0 .17.067.17.234 0 .066 0 .2-.068.267-.102.133-.305.233-.475.3zM72.877 19.93c-1.596 3.407-2.851 6.912-4.073 10.451-.102.2-.577.268-.679 0-.17-.3-.068-1.101 0-1.402.543-2.27 1.527-4.374 2.342-6.544-.984-1.436-2.24-3.406-3.19-5.108-1.188-2.17-2.173-4.441-2.546-6.945-.068-.334.136-.668.407-.802.204-.066.34.034.441.134.102.1.17.234.238.367.34 2.004 1.018 3.873 1.867 5.643.95 1.903 2.07 3.706 3.326 5.509a97.098 97.098 0 0 1 2.477-4.975 35.094 35.094 0 0 1 3.055-4.841c.238-.3.577-.635.883-.468.203.1.373.4.203.635-1.799 2.704-3.394 5.475-4.751 8.347zM86.696 15.79c0 .1 0 .268-.034.401 1.221.768 2.341 1.736 3.428 2.805 1.086 1.035 2.172 2.17 3.258 3.205.17.134-.102.367-.204.367-.543-.2-.95-.5-1.425-.834-.374-.3-.78-.668-1.222-.969a57.1 57.1 0 0 0-3.801-3.238c-.068 1.736.135 3.372.339 5.075-.068.267-.373.3-.577.2-.238-.367-.34-.768-.441-1.168-.068-.401-.136-.835-.204-1.236-.204-1.235-.204-2.37-.204-3.706l-.135-.1c-1.663 1.135-3.462 2.538-5.057 3.773-.068 0-.17.033-.272.067-.102 0-.237 0-.305-.1-.136-.1-.102-.234-.068-.334.034-.1.102-.2.17-.3a51.55 51.55 0 0 1 4.615-3.674c-1.629-1.135-3.36-2.137-5.09-3.071-.34-.234-.781-.601-.68-1.136.136-.267.544-.2.713-.1 2.105 1.102 4.141 2.237 6.042 3.64l.102-.067c.033-1.77.135-3.806.712-5.576.272-.4.747-.033.815.267.068 1.536-.34 2.972-.374 4.508 2.207-1.336 4.48-2.772 6.822-4.04a.865.865 0 0 1 .645.033c.17.1.34.434.17.701-2.546 1.536-5.193 2.972-7.738 4.608zM101.052 22.702c-1.697-.067-3.258-.835-4.242-2.27-.815-1.202-1.018-2.605-.849-3.974a8.74 8.74 0 0 1 1.731-4.14c.985-1.269 2.376-2.27 3.971-2.57 1.086-.201 2.24-.1 3.055.767.373.4.713.835.713 1.37.034.567-.238 1.068-.713 1.435-2.376 1.936-4.888 3.74-7.467 5.209.068 1.035.984 2.103 1.969 2.637.984.534 2.138.601 3.224.468 1.086-.1 2.206-.468 2.987-.835.135-.1.237 0 .271.1.034.067.102.2-.034.3-1.188 1.069-2.885 1.57-4.616 1.503zm1.494-11.92c-.985 0-1.969.401-2.75 1.002-1.663 1.335-2.647 3.472-2.647 5.542 2.41-1.302 4.684-3.005 6.89-4.774.17-.134.306-.634.068-1.035-.272-.534-.882-.735-1.561-.735zM117.55 15.156c-.238 2.37-.102 5.142.068 7.48.034.233-.306.266-.475.166-.475-.367-.713-1.335-.747-1.936a49.03 49.03 0 0 1 0-5.476c-2.512.1-5.227.033-7.704.3-.102 2.237-.034 4.374.067 6.511.034.067-.101.167-.271.2-.102 0-.272-.033-.373-.133-.442-.434-.543-1.235-.577-1.77-.17-3.372.067-6.744.407-10.05.068-.2.373-.4.645-.233.373.167.373.6.441.935-.068.868-.17 2.337-.272 3.372 2.478-.167 5.227-.067 7.705-.1.136-1.636.204-3.272.611-4.808.169-.2.509-.067.713.133.169.2.271.601.271.835-.17 1.269-.407 2.504-.441 3.806.102 0 .203-.033.305-.033.068 0 .17.067.17.234 0 .066 0 .2-.068.267-.102.133-.305.233-.475.3zM124.606 2.001l-.238 1.035c-.373 1.57-.407 3.205-.407 4.842-.034 2.403.135 4.84.373 7.145-.068.334-.102.7-.509.768-.407-.468-.509-1.002-.577-1.503-.272-2.437-.441-4.941-.373-7.412.067-1.937.305-3.873.78-5.743.068-.134.17-.5.509-.568.204-.033.543.034.645.334a6.362 6.362 0 0 1-.203 1.102zm.984 21.102c-1.188-.368-2.037-1.603-2.342-2.671-.034-.368.068-.635.373-.802.34-.066.577.234.645.434.102.368.272.668.475 1.002.408.568.849 1.069 1.256 1.636.034.234-.237.434-.407.4z" fill="#262626"/></svg>
